rospo-newyear-dark/symbolic/status/keyboard-brightness-symbolic.svg

<svg height="16" width="16" xmlns="http://www.w3.org/2000/svg"><g fill="#d3dae3"><path d="m5.5 9c-.277 0-.5.223-.5.5v2.5h6v-2.5c0-.277-.223-.5-.5-.5z"/><path d="m3 12v-2l-3 1z"/><path d="m7 6h2l-1-3z"/><path d="m13 10v2l3-1z"/><path d="m10.825 6.756 1.414 1.4143 1.415-2.8285z"/><path d="m3.7605 8.1703 1.4143-1.4143-2.8285-1.4142z"/></g></svg>

<svg xmlns="http://www.w3.org/2000/svg" width="16" height="16" version="1.1">
 <path style="fill:#d3dae3" d="M 5.5,9 C 5.223,9 5,9.223 5,9.5 V 12 H 11 V 9.5 C 11,9.223 10.777,9 10.5,9 Z"/>
 <path style="fill:#d3dae3" d="M 3,12 V 10 L 0,11 Z"/>
 <path style="fill:#d3dae3" d="M 7,6 H 9 L 8,3 Z"/>
 <path style="fill:#d3dae3" d="M 13,10 V 12 L 16,11 Z"/>
 <path style="fill:#d3dae3" d="M 10.825,6.756 12.239,8.1703 13.654,5.3418 Z"/>
 <path style="fill:#d3dae3" d="M 3.7605,8.1703 5.1748,6.756 2.3463,5.3418 Z"/>
</svg>
